X:1
T:Title
%%score { 1 | 2 }
L:1/8
M:4/4
K:F
V:1 treble nm="Grand Piano"
V:2 bass 
V:1
 z4 z2[Q:1/4=104] F2 | E2 G2 F2 A2 | G3 [Ed] c2 c2 | B2 A2 [^Fd]2 [Ac]2 |[M:3/4] [GB]6 | %5
[M:1/4] [GB]2 |[M:4/4] [Gc]2 [EB]2 [EA]2 [EG]2 | F3 G A2 =B2 | [Gc]2 [Ad]2 [FA]2 [F=B]2 | %9
[M:3/4] [Ec]6 |[M:1/4] [Ec]2 |[M:4/4] [EG]2 [EA]2 [EB]2 [F=B]2 | c3 =B c2 c2 | d2 f2 e2 [Gd]2 | %14
[M:3/4] [Gc]6 |[M:1/4] [Gc]2 |[M:4/4] [Ff]2 [_EAc]2 [DAd]2 [D^FA]2 | [B,Dc]3 [DB] [DF]2 [DG]2 | %18
 [CA]2 [Fd]2 [Ed]2 [Ec]2 |[M:3/4] F6 |] %20
V:2
 z4 z2 [F,A,C]2 | [F,G,C]2 [F,B,C]2 [F,A,C]2 [F,CF]2 | [F,B,E]3 [C,B,] [F,A,F]2 [F,_EF]2 | %3
 [F,DF]2 [F,CF]2 [D,C]2 [^F,D]2 |[M:3/4] [G,D]6 |[M:1/4] [F,D]2 | %6
[M:4/4] [E,C]2 [C,C]2 [^C,A,]2 [C,B,]2 | [D,A,D]3 [E,A,D] [F,A,D]2 [F,G,D]2 | %8
 [E,C]2 [F,C]2 [G,C]2 [G,D]2 |[M:3/4] [C,C]6 |[M:1/4] [C,C]2 | %11
[M:4/4] [C,B,]2 [C,A,]2 [C,G,]2 [C,_A,]2 | [F,A,F]3 [F,_A,F] [F,=A,F]2 [A,CF]2 | %13
 [B,F]2 [A,CF]2 [G,B,G]2[K:bass] [F,B,]2 |[M:3/4] [E,B,]6 |[M:1/4] [E,B,]2 | %16
[M:4/4] [F,A,]2 F,2 ^F,2 F,2 | G,,3 [G,,G,] [B,,G,]2 [=B,,F,]2 | [C,F,]2 [C,A,]2 [C,B,]2 [C,B,]2 | %19
[M:3/4] [F,A,]6 |] %20

